Obsidian-SemiLight/actions/16s/draw-line.svg

<svg viewBox="0 0 16 16" xmlns="http://www.w3.org/2000/svg"><path d="m11 2v2.3125l-6.6875 6.689453h-2.3105469v3h3v-2.314453l6.6855469-6.6875h2.3125v-3zm1 1h1v1h-1zm-9 9h1v1h-1z" fill="#4d4d4d"/></svg>

<svg xmlns="http://www.w3.org/2000/svg" viewBox="0 0 16 16">
  <defs id="defs3051">
    <style type="text/css" id="current-color-scheme">
      .ColorScheme-Text {
        color:#4d4d4d;
      }
      </style>
  </defs>
 <path style="fill:currentColor;fill-opacity:1;stroke:none" 
     d="M 11 2 L 11 4.3125 L 4.3125 11.001953 L 2.0019531 11.001953 L 2.0019531 14.001953 L 5.0019531 14.001953 L 5.0019531 11.6875 L 11.6875 5 L 14 5 L 14 2 L 11 2 z M 12 3 L 13 3 L 13 4 L 12 4 L 12 3 z M 3 12 L 4 12 L 4 13 L 3 13 L 3 12 z "
     class="ColorScheme-Text"
     />
</svg>
